X:1
T:Title
%%score { ( 1 4 ) | ( 2 3 ) }
L:1/8
Q:1/4=100
M:3/4
K:C
V:1 treble nm="Grand Piano"
V:4 treble 
V:2 bass 
V:3 bass 
V:1
 E2 E2 E2 | [EG]3 [DF] [CE]2 | [DF]2 [DF]2 [DF]2 | [DF]6 | [DB]2 [DB]2 [DB]2 | [Fd]3 [Ec] [DB]2 | %6
w: T.~F.~Seward * *||||||
 [Ec]2 E2 [FA]2 | [EG]6 | E2 E2 E2 | [EG]3 [DF] E2 | c2 c2 c2 | A6 | A2 [Bd]c [B,GB][FA] | %13
w: |||||||
 z2 .A2 z2 | [G,EG][A,DF] [CE]2[K:bass] .[G,B,D]2 | [E,C]6 | [CEG][CEG] [CEG][CEG] [B,DG][DFG] | %17
w: ||||
 [CEG]6 | AA AA [^Fd][Fc] | B6 | [Ec][Ec] [Fd][Ec] [GB][FA] | [EG]2 .[FA]2 [CEc]2 | %22
w: |||||
 [CEG][A,DF] [CE]2[K:bass] .[G,B,D]2 | [E,C]6 |] %24
w: ||
V:2
 [C,G,C]2 [C,G,C]2 [C,G,C]2 | [C,G,]3 [C,G,] [C,G,]2 | [G,,G,]2 [G,,G,]2 [G,,G,]2 | [G,,G,]6 | %4
 [G,,G,]2 [G,,G,]2 [G,,G,]2 | [G,,G,]3 [G,,G,] [G,,G,]2 | [C,G,]2 [C,C]2 [C,C]2 | [C,C]6 | %8
 [C,G,C]2 [C,G,C]2 [C,G,C]2 | [C,C]3 [C,C] [C,C]2 | [A,CE]2 [A,CE]2 [A,CE]2 | [F,CF]6 | %12
 [F,CF]2 z A z C | E,2 [D,G,]2 [C,G,]2 | E,F, G,2 z F, | C,6 | C,C, C,C, G,,G,, | C,6 | %18
 [F,CF][F,CF] [F,CF][F,A,F] [D,A,][D,A,] | [G,G]6 | [C,G,][C,G,] [C,G,][C,G,] [C,C][C,C] | %21
 [C,C]2 z[K:treble] B[K:bass] C,2 | E,F, G,2 z F, | C,6 |] %24
V:3
 x6 | x6 | x6 | x6 | x6 | x6 | x6 | x6 | x6 | x6 | x6 | x6 | z2 [F,A,]2 F,2 | x6 | z2 z2 G,,2 | %15
 x6 | x6 | x6 | x6 | x6 | x6 | z2 [C,C]2[K:treble][K:bass] z2 | z2 z2 G,,2 | x6 |] %24
V:4
 x6 | x6 | x6 | x6 | x6 | x6 | x6 | x6 | x6 | x6 | x6 | x6 | x6 | [CG]2 F-[FB] [Ec]2 | %14
 x4[K:bass] x2 | x6 | x6 | x6 | x6 | x6 | x6 | x6 | x4[K:bass] x2 | x6 |] %24

